images/msg.active.svg

<?xml version="1.0" encoding="utf-8"?>
<!-- Generator: Adobe Illustrator 18.0.0, SVG Export Plug-In . SVG Version: 6.00 Build 0)  -->
<!DOCTYPE svg PUBLIC "-//W3C//DTD SVG 1.1//EN" "http://www.w3.org/Graphics/SVG/1.1/DTD/svg11.dtd">
<svg version="1.1" id="图层_1" xmlns="http://www.w3.org/2000/svg" xmlns:xlink="http://www.w3.org/1999/xlink" x="0px" y="0px"
	 viewBox="0 0 76 76" enable-background="new 0 0 76 76" xml:space="preserve">
<path fill="#FF6600" d="M38,43l-2.5-1.5l-11.5,9V52h28v-1.5l-11.5-9L38,43z M38,34.5l14-10V24H24v0.5L38,34.5z M17,22h42v32H17V22z
	 M24,48l9.8-8L24,33V48z M52,48V33l-9.8,7L52,48z"/>
</svg>

﻿<?xml version="1.0" encoding="utf-8"?>
<!DOCTYPE svg PUBLIC "-//W3C//DTD SVG 1.1//EN" "http://www.w3.org/Graphics/SVG/1.1/DTD/svg11.dtd">
<svg xmlns="http://www.w3.org/2000/svg" xmlns:xlink="http://www.w3.org/1999/xlink" version="1.1" baseProfile="full" width="76" height="76" viewBox="0 0 76.00 76.00" enable-background="new 0 0 76.00 76.00" xml:space="preserve">
	<path fill="#ff6600" fill-opacity="1" stroke-width="0.2" stroke-linejoin="round" d="M 38,43L 35.5,41.5L 24,50.5L 24,52L 52,52L 52,50.5L 40.5,41.5L 38,43 Z M 38,34.5L 52,24.5L 52,24L 24,24L 24,24.5L 38,34.5 Z M 17,22L 59,22L 59,54L 17,54L 17,22 Z M 24,48L 33.75,40L 24,33L 24,48 Z M 52,48L 52,33L 42.25,40L 52,48 Z "/>
</svg>
